img/Card_Menu2.svg

<?xml version="1.0" encoding="UTF-8" standalone="no"?>
<svg
   width="10"
   height="10"
   viewBox="0 0 10 10"
   fill="none"
   version="1.1"
   id="svg3"
   sodipodi:docname="Card_Menu2.svg"
   inkscape:version="1.4.2 (ebf0e94, 2025-05-08)"
   xmlns:inkscape="http://www.inkscape.org/namespaces/inkscape"
   xmlns:sodipodi="http://sodipodi.sourceforge.net/DTD/sodipodi-0.dtd"
   xmlns="http://www.w3.org/2000/svg"
   xmlns:svg="http://www.w3.org/2000/svg">
  <sodipodi:namedview
     id="namedview3"
     pagecolor="#505050"
     bordercolor="#ffffff"
     borderopacity="1"
     inkscape:showpageshadow="0"
     inkscape:pageopacity="0"
     inkscape:pagecheckerboard="1"
     inkscape:deskcolor="#505050"
     showguides="true"
     inkscape:zoom="64"
     inkscape:cx="4.375"
     inkscape:cy="5.7421875"
     inkscape:window-width="1920"
     inkscape:window-height="1016"
     inkscape:window-x="0"
     inkscape:window-y="27"
     inkscape:window-maximized="1"
     inkscape:current-layer="g2">
    <sodipodi:guide
       position="3.5082454,4.5833369"
       orientation="0,-1"
       id="guide3"
       inkscape:locked="false" />
    <sodipodi:guide
       position="3.5082454,4.5833369"
       orientation="1,0"
       id="guide4"
       inkscape:locked="false" />
  </sodipodi:namedview>
  <g
     filter="url(#filter0_i_1569_4282)"
     id="g2">
    <path
       id="path1"
       style="stroke:#00cccc;stroke-width:0.1;stroke-dasharray:none;stroke-opacity:1;fill:#ffffff;fill-opacity:1;stroke-linejoin:bevel;paint-order:normal;stroke-dashoffset:0"
       d="M 6.2167969,1.4902344 C 6.180835,1.4895692 6.1458619,1.4904706 6.1113281,1.4941406 5.8536082,1.5215889 5.6115717,1.6325574 5.421875,1.8085938 v 0.00195 h -0.00195 c -0.09253,0.10282 -0.0917,0.2968306 0,0.4003906 0.00712,0.00804 0.016416,0.016816 0.035156,0.035156 0.04067,0.03979 0.078354,0.08136 0.1152344,0.125 0.21093,0.2497999 0.3146125,0.5353093 0.3828125,0.8183593 0.0656,0.27249 0.1121056,0.6105206 0.1660156,0.9941407 L 6.359375,5.8828125 c 0.05386,0.38321 0.1012213,0.7202 0.1132812,1 0.00474,0.11063 0.086996,0.2093488 0.1972657,0.1992187 0.0037,-3.4e-4 0.00607,3.901e-4 0.00977,0 0.26492,-0.02827 0.5131181,-0.1433549 0.7050781,-0.328125 0.20015,-0.1927399 0.3113431,-0.4978618 0.5332032,-1.1074218 L 8.4335938,4.2265625 C 8.6554438,3.6170425 8.7676612,3.3133894 8.7382812,3.0371094 8.7100412,2.7719994 8.5931431,2.5240712 8.4082031,2.3320312 8.2154231,2.1318512 7.9105513,2.0207581 7.3007812,1.7988281 6.7675038,1.6047269 6.4685301,1.4948903 6.2167969,1.4902344 Z"
       inkscape:label="card_r" />
    <path
       d="m 1.3500777,4.8528016 c -0.11176,-0.79519 -0.16764,-1.19278 -0.0258,-1.5086 0.07361,-0.16389 0.18308,-0.30916 0.32034,-0.4251 0.26448,-0.22339 0.66208,-0.27927 1.45727,-0.39103 0.79518,-0.11176 1.19278,-0.16763 1.50859,-0.02579 0.1639,0.07361 0.30917,0.18308 0.4251,0.32033 0.2234,0.26449 0.27928,0.66208 0.39103,1.45727 l 0.23893,1.70002 c 0.11175,0.79519 0.16763,1.19279 0.02579,1.50861 -0.07361,0.16389 -0.18308,0.30916 -0.32033,0.42509 -0.26449,0.2234 -0.66208,0.27928 -1.45727,0.39103 -0.79519,0.11176 -1.19279,0.16764 -1.5086,0.0258 -0.16389,-0.07361 -0.30917,-0.18308 -0.4251,-0.32034 -0.2234,-0.26448 -0.27927,-0.66207 -0.39103,-1.45726 z"
       fill="#ffffff"
       id="path2-4"
       inkscape:label="card_l"
       style="display:inline;stroke:#00cccc;stroke-width:0.1;stroke-linecap:square;stroke-linejoin:bevel;stroke-dasharray:none;stroke-opacity:1;paint-order:normal" />
    <path
       fill-rule="evenodd"
       clip-rule="evenodd"
       d="m 3.2898431,3.971022 c 0.037674,0.00246 0.064739,0.014599 0.070923,0.017247 0.016414,0.00698 0.03026,0.014887 0.038804,0.020236 0.017672,0.011096 0.035219,0.024657 0.050484,0.03685 0.031647,0.025291 0.070545,0.059633 0.1128803,0.099162 0.085661,0.080005 0.1957781,0.1902938 0.309804,0.3133307 C 4.095356,4.6980651 4.3562904,5.0113341 4.4757686,5.252451 4.5943777,5.4918564 4.679232,5.839667 4.5816103,6.1620736 4.5314083,6.3277008 4.4338378,6.4836274 4.2746253,6.6060682 4.1169362,6.7272673 3.9085476,6.8088343 3.647774,6.8451124 3.3871589,6.8813331 3.1646636,6.8596843 2.9799634,6.786178 2.793413,6.7118186 2.6564351,6.5885419 2.5629657,6.4429019 2.3811512,6.1594252 2.3677838,5.8015636 2.4165002,5.5389308 2.4655914,5.2743831 2.6316344,4.9017092 2.7802293,4.6098352 2.8562988,4.4604335 2.9317104,4.3242283 2.9922598,4.2239083 c 0.029926,-0.049566 0.057988,-0.093219 0.081533,-0.1262082 0.01137,-0.015918 0.024991,-0.033766 0.038989,-0.049298 0.00673,-0.00744 0.017536,-0.018841 0.031321,-0.029992 0.00653,-0.00528 0.045035,-0.037735 0.1040258,-0.046023 z M 3.9960427,5.3122884 C 3.8885996,5.337448 3.822062,5.4453807 3.8471083,5.55288 3.9071387,5.8114094 3.6946188,6.0926502 3.4295168,6.1054356 3.319249,6.1106896 3.2335672,6.204132 3.238713,6.3143846 3.2439669,6.4246525 3.3378947,6.5102668 3.4481423,6.5051216 3.9629324,6.4805896 4.3535888,5.963645 4.2366969,5.4617088 4.2115586,5.3542375 4.1035568,5.28724 3.9960427,5.3122884 Z M 2.6186555,6.0565431 c 0.00128,0.00577 0.00346,0.011326 0.00485,0.01707 -0.00375,-0.015567 -0.00744,-0.031142 -0.010466,-0.046855 0.00191,0.00992 0.00343,0.019918 0.00562,0.029785 z m -0.018766,-0.117187 c 0.00173,0.01551 0.00408,0.030948 0.00646,0.046428 -0.00236,-0.015472 -0.00474,-0.030922 -0.00646,-0.046428 z m -0.00659,-0.080919 c -1.239e-4,1.73e-5 -2.148e-4,1.258e-4 -2.074e-4,2.51e-4 3.37e-4,0.00739 0.00166,0.014747 0.00212,0.022164 -4.564e-4,-0.00742 -0.00131,-0.014791 -0.00163,-0.022182 -1.01e-5,-1.45e-4 -1.362e-4,-2.536e-4 -2.798e-4,-2.337e-4 z m 0.00214,-0.1353707 c -0.00125,0.019165 -0.00239,0.038516 -0.00277,0.05806 3.608e-4,-0.019541 0.00153,-0.038898 0.00277,-0.05806 z m 0.00961,-0.097469 c 0.00243,-0.017124 0.0052,-0.033956 0.00826,-0.05045 0.00542,-0.029175 0.01249,-0.06019 0.021129,-0.09266 -0.00865,0.032507 -0.016187,0.063521 -0.021609,0.092727 -0.00305,0.016452 -0.00538,0.033299 -0.00778,0.050383 z m -0.00532,0.039682 c -0.00131,0.011844 -0.0019,0.023845 -0.00289,0.035901 0.00151,-0.018596 0.00339,-0.03695 0.00566,-0.055019 -7.912e-4,0.00636 -0.00205,0.012694 -0.00276,0.019118 z"
       fill="#ffffff"
       id="path1-0"
       style="display:inline;fill:#00cccc;fill-opacity:1;stroke-width:0.1;filter:url(#filter0_i_1587_672-5);stroke:#000000;stroke-opacity:1;stroke-dasharray:none;stroke-linejoin:round;stroke-linecap:butt;paint-order:stroke markers fill"
       inkscape:label="water" />
  </g>
  <defs
     id="defs3">
    <linearGradient
       id="linearGradient1"
       inkscape:swatch="gradient">
      <stop
         style="stop-color:#00cccc;stop-opacity:1;"
         offset="0"
         id="stop1" />
      <stop
         style="stop-color:#000000;stop-opacity:0;"
         offset="1"
         id="stop2" />
    </linearGradient>
    <clipPath
       clipPathUnits="userSpaceOnUse"
       id="clipPath24">
      <rect
         style="fill:none;stroke:#000000;stroke-width:0.999999;stroke-linecap:butt;stroke-linejoin:bevel;paint-order:stroke markers fill;stop-color:#000000"
         id="rect24"
         width="44.999748"
         height="77.937294"
         x="251.53429"
         y="222.73541" />
    </clipPath>
    <clipPath
       clipPathUnits="userSpaceOnUse"
       id="clipPath15">
      <rect
         style="fill:none;stroke:#000000;stroke-linecap:butt;stroke-linejoin:bevel;paint-order:stroke markers fill;stop-color:#000000"
         id="rect15-7"
         width="45.034248"
         height="38.955639"
         x="262.48285"
         y="121.00073" />
    </clipPath>
    <linearGradient
       id="swatch36"
       inkscape:swatch="solid">
      <stop
         style="stop-color:#000000;stop-opacity:1;"
         offset="0"
         id="stop37" />
    </linearGradient>
    <linearGradient
       id="swatch35"
       inkscape:swatch="solid">
      <stop
         style="stop-color:#000000;stop-opacity:1;"
         offset="0"
         id="stop36" />
    </linearGradient>
    <filter
       id="filter0_i_1569_4282"
       x="0"
       y="0"
       width="10"
       height="10"
       filterUnits="userSpaceOnUse"
       color-interpolation-filters="sRGB">
      <feFlood
         flood-opacity="0"
         result="BackgroundImageFix"
         id="feFlood2" />
      <feBlend
         mode="normal"
         in="SourceGraphic"
         in2="BackgroundImageFix"
         result="shape"
         id="feBlend2" />
      <feColorMatrix
         in="SourceAlpha"
         type="matrix"
         values="0 0 0 0 0 0 0 0 0 0 0 0 0 0 0 0 0 0 127 0"
         result="hardAlpha"
         id="feColorMatrix2" />
      <feOffset
         id="feOffset2" />
      <feGaussianBlur
         stdDeviation="1"
         id="feGaussianBlur2" />
      <feComposite
         in2="hardAlpha"
         operator="arithmetic"
         k2="-1"
         k3="1"
         id="feComposite2" />
      <feColorMatrix
         type="matrix"
         values="0 0 0 0 0.942 0 0 0 0 0.94 0 0 0 0 1 0 0 0 0.1 0"
         id="feColorMatrix3" />
      <feBlend
         mode="hard-light"
         in2="shape"
         result="effect1_innerShadow_1569_4282"
         id="feBlend3" />
    </filter>
    <filter
       id="filter0_i_1587_672"
       x="0"
       y="0"
       width="10"
       height="10"
       filterUnits="userSpaceOnUse"
       color-interpolation-filters="sRGB">
      <feFlood
         flood-opacity="0"
         result="BackgroundImageFix"
         id="feFlood1" />
      <feBlend
         mode="normal"
         in="SourceGraphic"
         in2="BackgroundImageFix"
         result="shape"
         id="feBlend1" />
      <feColorMatrix
         in="SourceAlpha"
         type="matrix"
         values="0 0 0 0 0 0 0 0 0 0 0 0 0 0 0 0 0 0 127 0"
         result="hardAlpha"
         id="feColorMatrix1" />
      <feOffset
         id="feOffset1" />
      <feGaussianBlur
         stdDeviation="1"
         id="feGaussianBlur1" />
      <feComposite
         in2="hardAlpha"
         operator="arithmetic"
         k2="-1"
         k3="1"
         id="feComposite1"
         k1="0"
         k4="0" />
      <feColorMatrix
         type="matrix"
         values="0 0 0 0 0.942 0 0 0 0 0.94 0 0 0 0 1 0 0 0 0.1 0"
         id="feColorMatrix2-3" />
      <feBlend
         mode="hard-light"
         in2="shape"
         result="effect1_innerShadow_1587_672"
         id="feBlend2-6" />
    </filter>
    <filter
       id="filter0_i_1587_672-5"
       x="0"
       y="0"
       width="10"
       height="10"
       filterUnits="userSpaceOnUse"
       color-interpolation-filters="sRGB">
      <feFlood
         flood-opacity="0"
         result="BackgroundImageFix"
         id="feFlood1-3" />
      <feBlend
         mode="normal"
         in="SourceGraphic"
         in2="BackgroundImageFix"
         result="shape"
         id="feBlend1-5" />
      <feColorMatrix
         in="SourceAlpha"
         type="matrix"
         values="0 0 0 0 0 0 0 0 0 0 0 0 0 0 0 0 0 0 127 0"
         result="hardAlpha"
         id="feColorMatrix1-6" />
      <feOffset
         id="feOffset1-2" />
      <feGaussianBlur
         stdDeviation="0.69275172"
         id="feGaussianBlur1-9" />
      <feComposite
         in2="hardAlpha"
         operator="arithmetic"
         k2="-1"
         k3="1"
         id="feComposite1-1"
         k1="0"
         k4="0" />
      <feColorMatrix
         type="matrix"
         values="0 0 0 0 0.942 0 0 0 0 0.94 0 0 0 0 1 0 0 0 0.1 0"
         id="feColorMatrix2-2" />
      <feBlend
         mode="hard-light"
         in2="shape"
         result="effect1_innerShadow_1587_672"
         id="feBlend2-7" />
    </filter>
  </defs>
</svg>

<?xml version="1.0" encoding="UTF-8" standalone="no"?>
<svg
   width="10"
   height="10"
   viewBox="0 0 10 10"
   fill="none"
   version="1.1"
   id="svg3"
   sodipodi:docname="Card_Menu2.svg"
   inkscape:version="1.4.3 (0d15f75042, 2025-12-25)"
   xmlns:inkscape="http://www.inkscape.org/namespaces/inkscape"
   xmlns:sodipodi="http://sodipodi.sourceforge.net/DTD/sodipodi-0.dtd"
   xmlns="http://www.w3.org/2000/svg"
   xmlns:svg="http://www.w3.org/2000/svg">
  <sodipodi:namedview
     id="namedview3"
     pagecolor="#505050"
     bordercolor="#ffffff"
     borderopacity="1"
     inkscape:showpageshadow="0"
     inkscape:pageopacity="0"
     inkscape:pagecheckerboard="1"
     inkscape:deskcolor="#505050"
     showguides="true"
     inkscape:zoom="64"
     inkscape:cx="1.4609375"
     inkscape:cy="4.84375"
     inkscape:window-width="1920"
     inkscape:window-height="1013"
     inkscape:window-x="0"
     inkscape:window-y="0"
     inkscape:window-maximized="1"
     inkscape:current-layer="svg3">
    <sodipodi:guide
       position="3.5082454,4.5833369"
       orientation="0,-1"
       id="guide3"
       inkscape:locked="false" />
    <sodipodi:guide
       position="3.5082454,4.5833369"
       orientation="1,0"
       id="guide4"
       inkscape:locked="false" />
    <sodipodi:guide
       position="2.984113,7.4549807"
       orientation="-0.0528052,0.3775658"
       id="guide26"
       inkscape:locked="false" />
  </sodipodi:namedview>
  <g
     filter="url(#filter0_i_1569_4282)"
     id="g2">
    <path
       fill-rule="evenodd"
       clip-rule="evenodd"
       d="M6.11099 1.49483C6.38726 1.46547 6.69196 1.57671 7.30142 1.79854C7.91119 2.02047 8.21606 2.13156 8.40884 2.33174C8.59378 2.52378 8.70971 2.77171 8.73795 3.03682C8.76733 3.3131 8.65608 3.61773 8.43423 4.22725L7.91861 5.64619C7.69675 6.25575 7.58556 6.56087 7.38541 6.75361C7.19345 6.93838 6.94525 7.05347 6.68033 7.08174C6.67663 7.08213 6.67293 7.0825 6.66923 7.08284C6.55896 7.09297 6.47804 6.99413 6.4733 6.8835C6.46124 6.6037 6.4129 6.26671 6.35904 5.8835L6.11978 4.1833C6.06587 3.79968 6.01937 3.46165 5.95377 3.18916C5.88557 2.90611 5.78188 2.6206 5.57095 2.3708C5.53407 2.32716 5.49519 2.28545 5.45452 2.24566C5.43578 2.22732 5.42641 2.21815 5.41929 2.21011C5.32759 2.10655 5.32836 1.9134 5.42088 1.81058C5.42806 1.8026 5.39115 1.83815 5.40591 1.82393C5.59794 1.63905 5.84593 1.52306 6.11099 1.49483ZM5.03677 2.82295C5.06473 2.85609 5.0898 2.89156 5.11295 2.9294C5.135 2.96545 5.15406 3.00436 5.17252 3.04561C5.1346 2.96092 5.09054 2.88776 5.0358 2.82295C5.00896 2.79119 4.98068 2.76082 4.95084 2.73213C4.98082 2.76076 5.0099 2.79113 5.03677 2.82295Z"
       fill="white"
       id="path1" />
    <path
       d="M 1.35052,4.85311 C 1.23876,4.05792 1.18288,3.66033 1.32472,3.34451 1.39833,3.18062 1.5078,3.03535 1.64506,2.91941 1.90954,2.69602 2.30714,2.64014 3.10233,2.52838 3.89751,2.41662 4.29511,2.36075 4.61092,2.50259 4.77482,2.5762 4.92009,2.68567 5.03602,2.82292 5.25942,3.08741 5.3153,3.485 5.42705,4.28019 L 5.66598,5.98021 C 5.77773,6.7754 5.83361,7.173 5.69177,7.48882 5.61816,7.65271 5.50869,7.79798 5.37144,7.91391 5.10695,8.13731 4.70936,8.19319 3.91417,8.30494 3.11898,8.4167 2.72138,8.47258 2.40557,8.33074 2.24168,8.25713 2.0964,8.14766 1.98047,8.0104 1.75707,7.74592 1.7012,7.34833 1.58944,6.55314 Z"
       fill="#ffffff"
       id="path2"
       inkscape:label="path2"
       style="stroke:#000000;stroke-opacity:1;stroke-width:0;stroke-dasharray:none" />
    <path
       fill-rule="evenodd"
       clip-rule="evenodd"
       d="m 3.2898431,3.971022 c 0.037674,0.00246 0.064739,0.014599 0.070923,0.017247 0.016414,0.00698 0.03026,0.014887 0.038804,0.020236 0.017672,0.011096 0.035219,0.024657 0.050484,0.03685 0.031647,0.025291 0.070545,0.059633 0.1128803,0.099162 0.085661,0.080005 0.1957781,0.1902938 0.309804,0.3133307 C 4.095356,4.6980651 4.3562904,5.0113341 4.4757686,5.252451 4.5943777,5.4918564 4.679232,5.839667 4.5816103,6.1620736 4.5314083,6.3277008 4.4338378,6.4836274 4.2746253,6.6060682 4.1169362,6.7272673 3.9085476,6.8088343 3.647774,6.8451124 3.3871589,6.8813331 3.1646636,6.8596843 2.9799634,6.786178 2.793413,6.7118186 2.6564351,6.5885419 2.5629657,6.4429019 2.3811512,6.1594252 2.3677838,5.8015636 2.4165002,5.5389308 2.4655914,5.2743831 2.6316344,4.9017092 2.7802293,4.6098352 2.8562988,4.4604335 2.9317104,4.3242283 2.9922598,4.2239083 c 0.029926,-0.049566 0.057988,-0.093219 0.081533,-0.1262082 0.01137,-0.015918 0.024991,-0.033766 0.038989,-0.049298 0.00673,-0.00744 0.017536,-0.018841 0.031321,-0.029992 0.00653,-0.00528 0.045035,-0.037735 0.1040258,-0.046023 z M 3.9960427,5.3122884 C 3.8885996,5.337448 3.822062,5.4453807 3.8471083,5.55288 3.9071387,5.8114094 3.6946188,6.0926502 3.4295168,6.1054356 3.319249,6.1106896 3.2335672,6.204132 3.238713,6.3143846 3.2439669,6.4246525 3.3378947,6.5102668 3.4481423,6.5051216 3.9629324,6.4805896 4.3535888,5.963645 4.2366969,5.4617088 4.2115586,5.3542375 4.1035568,5.28724 3.9960427,5.3122884 Z M 2.6186555,6.0565431 c 0.00128,0.00577 0.00346,0.011326 0.00485,0.01707 -0.00375,-0.015567 -0.00744,-0.031142 -0.010466,-0.046855 0.00191,0.00992 0.00343,0.019918 0.00562,0.029785 z m -0.018766,-0.117187 c 0.00173,0.01551 0.00408,0.030948 0.00646,0.046428 -0.00236,-0.015472 -0.00474,-0.030922 -0.00646,-0.046428 z m -0.00659,-0.080919 c -1.239e-4,1.73e-5 -2.148e-4,1.258e-4 -2.074e-4,2.51e-4 3.37e-4,0.00739 0.00166,0.014747 0.00212,0.022164 -4.564e-4,-0.00742 -0.00131,-0.014791 -0.00163,-0.022182 -1.01e-5,-1.45e-4 -1.362e-4,-2.536e-4 -2.798e-4,-2.337e-4 z m 0.00214,-0.1353707 c -0.00125,0.019165 -0.00239,0.038516 -0.00277,0.05806 3.608e-4,-0.019541 0.00153,-0.038898 0.00277,-0.05806 z m 0.00961,-0.097469 c 0.00243,-0.017124 0.0052,-0.033956 0.00826,-0.05045 0.00542,-0.029175 0.01249,-0.06019 0.021129,-0.09266 -0.00865,0.032507 -0.016187,0.063521 -0.021609,0.092727 -0.00305,0.016452 -0.00538,0.033299 -0.00778,0.050383 z m -0.00532,0.039682 c -0.00131,0.011844 -0.0019,0.023845 -0.00289,0.035901 0.00151,-0.018596 0.00339,-0.03695 0.00566,-0.055019 -7.912e-4,0.00636 -0.00205,0.012694 -0.00276,0.019118 z"
       fill="#ffffff"
       id="path1-0"
       style="display:inline;fill:#000000;fill-opacity:1;stroke-width:0.5;filter:url(#filter0_i_1587_672-5)" />
  </g>
  <defs
     id="defs3">
    <clipPath
       clipPathUnits="userSpaceOnUse"
       id="clipPath24">
      <rect
         style="fill:none;stroke:#000000;stroke-width:0.999999;stroke-linecap:butt;stroke-linejoin:bevel;paint-order:stroke markers fill;stop-color:#000000"
         id="rect24"
         width="44.999748"
         height="77.937294"
         x="251.53429"
         y="222.73541" />
    </clipPath>
    <clipPath
       clipPathUnits="userSpaceOnUse"
       id="clipPath15">
      <rect
         style="fill:none;stroke:#000000;stroke-linecap:butt;stroke-linejoin:bevel;paint-order:stroke markers fill;stop-color:#000000"
         id="rect15-7"
         width="45.034248"
         height="38.955639"
         x="262.48285"
         y="121.00073" />
    </clipPath>
    <linearGradient
       id="swatch36"
       inkscape:swatch="solid">
      <stop
         style="stop-color:#000000;stop-opacity:1;"
         offset="0"
         id="stop37" />
    </linearGradient>
    <linearGradient
       id="swatch35"
       inkscape:swatch="solid">
      <stop
         style="stop-color:#000000;stop-opacity:1;"
         offset="0"
         id="stop36" />
    </linearGradient>
    <filter
       id="filter0_i_1569_4282"
       x="0"
       y="0"
       width="10"
       height="10"
       filterUnits="userSpaceOnUse"
       color-interpolation-filters="sRGB">
      <feFlood
         flood-opacity="0"
         result="BackgroundImageFix"
         id="feFlood2" />
      <feBlend
         mode="normal"
         in="SourceGraphic"
         in2="BackgroundImageFix"
         result="shape"
         id="feBlend2" />
      <feColorMatrix
         in="SourceAlpha"
         type="matrix"
         values="0 0 0 0 0 0 0 0 0 0 0 0 0 0 0 0 0 0 127 0"
         result="hardAlpha"
         id="feColorMatrix2" />
      <feOffset
         id="feOffset2" />
      <feGaussianBlur
         stdDeviation="1"
         id="feGaussianBlur2" />
      <feComposite
         in2="hardAlpha"
         operator="arithmetic"
         k2="-1"
         k3="1"
         id="feComposite2" />
      <feColorMatrix
         type="matrix"
         values="0 0 0 0 0.942 0 0 0 0 0.94 0 0 0 0 1 0 0 0 0.1 0"
         id="feColorMatrix3" />
      <feBlend
         mode="hard-light"
         in2="shape"
         result="effect1_innerShadow_1569_4282"
         id="feBlend3" />
    </filter>
    <filter
       id="filter0_i_1587_672"
       x="0"
       y="0"
       width="10"
       height="10"
       filterUnits="userSpaceOnUse"
       color-interpolation-filters="sRGB">
      <feFlood
         flood-opacity="0"
         result="BackgroundImageFix"
         id="feFlood1" />
      <feBlend
         mode="normal"
         in="SourceGraphic"
         in2="BackgroundImageFix"
         result="shape"
         id="feBlend1" />
      <feColorMatrix
         in="SourceAlpha"
         type="matrix"
         values="0 0 0 0 0 0 0 0 0 0 0 0 0 0 0 0 0 0 127 0"
         result="hardAlpha"
         id="feColorMatrix1" />
      <feOffset
         id="feOffset1" />
      <feGaussianBlur
         stdDeviation="1"
         id="feGaussianBlur1" />
      <feComposite
         in2="hardAlpha"
         operator="arithmetic"
         k2="-1"
         k3="1"
         id="feComposite1"
         k1="0"
         k4="0" />
      <feColorMatrix
         type="matrix"
         values="0 0 0 0 0.942 0 0 0 0 0.94 0 0 0 0 1 0 0 0 0.1 0"
         id="feColorMatrix2-3" />
      <feBlend
         mode="hard-light"
         in2="shape"
         result="effect1_innerShadow_1587_672"
         id="feBlend2-6" />
    </filter>
    <filter
       id="filter0_i_1587_672-5"
       x="0"
       y="0"
       width="10"
       height="10"
       filterUnits="userSpaceOnUse"
       color-interpolation-filters="sRGB">
      <feFlood
         flood-opacity="0"
         result="BackgroundImageFix"
         id="feFlood1-3" />
      <feBlend
         mode="normal"
         in="SourceGraphic"
         in2="BackgroundImageFix"
         result="shape"
         id="feBlend1-5" />
      <feColorMatrix
         in="SourceAlpha"
         type="matrix"
         values="0 0 0 0 0 0 0 0 0 0 0 0 0 0 0 0 0 0 127 0"
         result="hardAlpha"
         id="feColorMatrix1-6" />
      <feOffset
         id="feOffset1-2" />
      <feGaussianBlur
         stdDeviation="0.69275172"
         id="feGaussianBlur1-9" />
      <feComposite
         in2="hardAlpha"
         operator="arithmetic"
         k2="-1"
         k3="1"
         id="feComposite1-1"
         k1="0"
         k4="0" />
      <feColorMatrix
         type="matrix"
         values="0 0 0 0 0.942 0 0 0 0 0.94 0 0 0 0 1 0 0 0 0.1 0"
         id="feColorMatrix2-2" />
      <feBlend
         mode="hard-light"
         in2="shape"
         result="effect1_innerShadow_1587_672"
         id="feBlend2-7" />
    </filter>
  </defs>
</svg>
